64x64/mimetypes/application-vnd.google-apps.presentation.svg

<svg height="64" width="64" xmlns="http://www.w3.org/2000/svg"><path d="m14.5 8a2.495 2.495 0 0 0 -2.5 2.5v45c0 1.385 1.115 2.5 2.5 2.5h35c1.385 0 2.5-1.115 2.5-2.5v-32.5l-15-15z" opacity=".2"/><path d="m14.5 7a2.495 2.495 0 0 0 -2.5 2.5v45c0 1.385 1.115 2.5 2.5 2.5h35c1.385 0 2.5-1.115 2.5-2.5v-32.5l-12-3-3-12z" fill="#fec006"/><path d="m52 23-15-15v12.5c0 1.385 1.115 2.5 2.5 2.5z" opacity=".2"/><path d="m52 22-15-15v12.5c0 1.385 1.115 2.5 2.5 2.5z" fill="#fed861"/><path d="m14.5 7a2.495 2.495 0 0 0 -2.5 2.5v1c0-1.385 1.115-2.5 2.5-2.5h22.5v-1z" fill="#f4f4f7" opacity=".2"/><path d="m24 29c-1.662 0-3 1.338-3 3v15c0 1.662 1.338 3 3 3h16c1.662 0 3-1.338 3-3v-15c0-1.662-1.338-3-3-3zm0 5h16v11h-16z" opacity=".2"/><path d="m24 28c-1.662 0-3 1.338-3 3v15c0 1.662 1.338 3 3 3h16c1.662 0 3-1.338 3-3v-15c0-1.662-1.338-3-3-3zm0 5h16v11h-16z" fill="#f4f4f7"/></svg>

<svg xmlns="http://www.w3.org/2000/svg" width="64" height="64"><path style="opacity:.2" d="M14.5 8a2.495 2.495 0 0 0-2.5 2.5v45c0 1.385 1.115 2.5 2.5 2.5h35c1.385 0 2.5-1.115 2.5-2.5V23L37 8z"/><path style="fill:#fec006" d="M14.5 7A2.495 2.495 0 0 0 12 9.5v45c0 1.385 1.115 2.5 2.5 2.5h35c1.385 0 2.5-1.115 2.5-2.5V22l-12-3-3-12z"/><path style="opacity:.2" d="M52 23 37 8v12.5c0 1.385 1.115 2.5 2.5 2.5z"/><path style="fill:#fed861" d="M52 22 37 7v12.5c0 1.385 1.115 2.5 2.5 2.5z"/><path style="opacity:.2;fill:#f4f4f7" d="M14.5 7A2.495 2.495 0 0 0 12 9.5v1C12 9.115 13.115 8 14.5 8H37V7H14.5z"/><path style="opacity:.2" d="M24 29c-1.662 0-3 1.338-3 3v15c0 1.662 1.338 3 3 3h16c1.662 0 3-1.338 3-3V32c0-1.662-1.338-3-3-3zm0 5h16v11H24z"/><path style="fill:#f4f4f7" d="M24 28c-1.662 0-3 1.338-3 3v15c0 1.662 1.338 3 3 3h16c1.662 0 3-1.338 3-3V31c0-1.662-1.338-3-3-3zm0 5h16v11H24z"/></svg>
